X: 07040
T: FRIDAY'S HORNPIPE
C: Bob McQuillen 2 June 89
B: Bob's Note Book 7 #40
%R: hornpipe, reel
Z: 2020 John Chambers <jc:trillian.mit.edu>
N: Should that last g note in bar 12 be natural?
M: C
L: 1/8
K: D
AG \
| FDFA dfdA | BGBd gBed | cAce gbag | fafd A2AG |\
| FDFA dfdA | BGBd gBed | cAce gbag | f2d2 d2 :|
|: fg \
| abaf dAdf | gage cAce | fafd Adfa | ba^gb a2fg |\
| abaf dAdf | gage cAce | fafd gecd | e2d2 d2 :|
%%begintext align
%% Well, today's Friday all right, but I
%% sure as hell didn't write this tune for the day of the week; I
%% wrote it for Mary Kay Friday of Washsington, D.C., who was instrumental
%% in getting "Greengate" and me down to Maryland for the
%% Chesapeake Spring Dance Weekend. Susie Elberger called and we
%% had such a nice time - Thanks ever so much, Mary Kay!
%%endtext

%%sep 1 1 500

%%sep 1 1 500

